dist/img/svg/ic_tgram.svg

<svg width="24" height="20" viewBox="0 0 24 20" fill="none" xmlns="http://www.w3.org/2000/svg">
<path d="M9.43845 12.9199L9.05797 18.2715C9.60234 18.2715 9.8381 18.0377 10.1208 17.7569L12.673 15.3178L17.9615 19.1907C18.9313 19.7312 19.6147 19.4465 19.8763 18.2984L23.3476 2.03252C23.6553 0.59876 22.8301 0.0371413 21.8851 0.388872L1.48091 8.20074C0.0883608 8.74128 0.109445 9.51758 1.24418 9.86931L6.46072 11.4919L18.5777 3.91001C19.1479 3.53241 19.6664 3.74134 19.2399 4.11894L9.43845 12.9199Z" fill="white"/>
</svg>

<svg width="24" height="20" viewBox="0 0 24 20" fill="none" xmlns="http://www.w3.org/2000/svg"><path d="M9.438 12.92l-.38 5.351c.544 0 .78-.233 1.063-.514l2.552-2.44 5.289 3.874c.97.54 1.653.256 1.914-.893l3.472-16.265C23.655.599 22.83.037 21.885.389L1.481 8.2C.088 8.74.109 9.518 1.244 9.869l5.217 1.623L18.578 3.91c.57-.378 1.088-.169.662.209l-9.802 8.8z" fill="#fff"/></svg>
